modules/hawcons-filled/icons/icon-24-stop-watch.svg

<?xml version="1.0" encoding="UTF-8" standalone="no"?>
<svg width="32px" height="32px" viewBox="0 0 32 32" version="1.1" xmlns="http://www.w3.org/2000/svg" xmlns:xlink="http://www.w3.org/1999/xlink" xmlns:sketch="http://www.bohemiancoding.com/sketch/ns">
    <!-- Generator: Sketch 3.0.3 (7891) - http://www.bohemiancoding.com/sketch -->
    <title>icon 24 stop watch</title>
    <desc>Created with Sketch.</desc>
    <defs></defs>
    <g id="Page-1" stroke="none" stroke-width="1" fill="none" fill-rule="evenodd" sketch:type="MSPage">
        <g id="icon-24-stop-watch" sketch:type="MSArtboardGroup" fill="#929292">
            <path d="M16,16.0853529 L16,10.5012308 C16,10.2297506 16.2238576,10 16.5,10 C16.7680664,10 17,10.2244087 17,10.5012308 L17,16.0853529 C17.5825962,16.2912711 18,16.8468906 18,17.5 C18,18.1531094 17.5825962,18.7087289 17,18.9146471 L17,20.4987692 C17,20.7702494 16.7761424,21 16.5,21 C16.2319336,21 16,20.7755913 16,20.4987692 L16,18.9146471 C15.4174038,18.7087289 15,18.1531094 15,17.5 C15,16.8468906 15.4174038,16.2912711 16,16.0853529 L16,16.0853529 L16,16.0853529 Z M24.2705328,9.02236046 C22.3384175,7.25044706 19.7987573,6.13040236 17,6.01067419 L17,6.01067419 L17,4 L18,4 L18,3 L15,3 L15,4 L16,4 L16,6.01067419 C9.88069188,6.27245237 5,11.3162529 5,17.5 C5,23.8512746 10.1487254,29 16.5,29 C22.8512746,29 28,23.8512746 28,17.5 C28,14.5042431 26.8545105,11.7760295 24.9776395,9.72946725 L26.2071068,8.5 L26.9142136,9.20710678 L27.6213203,8.5 L25.5,6.37867966 L24.7928932,7.08578644 L25.5,7.79289322 L24.2705328,9.02236046 L24.2705328,9.02236046 L24.2705328,9.02236046 Z M16.5,18 C16.7761424,18 17,17.7761424 17,17.5 C17,17.2238576 16.7761424,17 16.5,17 C16.2238576,17 16,17.2238576 16,17.5 C16,17.7761424 16.2238576,18 16.5,18 L16.5,18 Z" id="stop-watch" sketch:type="MSShapeGroup"></path>
        </g>
    </g>
</svg>

<svg width="32" height="32" viewBox="0 0 32 32" xmlns="http://www.w3.org/2000/svg"><path d="M16 16.085v-5.584c0-.271.224-.501.5-.501.268 0 .5.224.5.501v5.584a1.5 1.5 0 0 1 0 2.83v1.584a.504.504 0 0 1-.5.501.506.506 0 0 1-.5-.501v-1.584a1.5 1.5 0 0 1 0-2.83zm8.27-7.063A11.456 11.456 0 0 0 17 6.011V4h1V3h-3v1h1v2.01C9.88 6.273 5 11.317 5 17.5 5 23.851 10.149 29 16.5 29S28 23.851 28 17.5c0-2.996-1.145-5.724-3.022-7.77l1.23-1.23.706.707.707-.707L25.5 6.379l-.707.707.707.707-1.23 1.23zM16.5 18a.5.5 0 1 0 0-1 .5.5 0 0 0 0 1z" fill="#929292" fill-rule="evenodd"/></svg>
